X:1
T:252 - A Porta Franca
T:Letra: Lydia Baxter (1809-1874)
T:Trad.: AnÃ´nimo
T:MÃºsica: Silas Jones Vall (1818-1884)
M:6/8
L:1/8
Q:1/4=100
K:Bbmaj
V:1
F | y"Bb"F2D F2B | "Eb"B2G "Bb"F2D | G2F D2B, | "Bb/F"D2 "F"CzF | "Bb"F2D F2B | "Eb"B2G "Bb"F2B | d2B "Bb/F"d2c | "F7"c3 "Bb"Bz || B | "F7"c2=B c2d | "Gm"B2G B2"(Eb)"G | "Bb"F2F G2F | D2B, "F"HC2F | "Bb"F3-F2F | ("Eb"G3 HB2)B | "Bb"d2B "F7"d2c | "Bb"B3z2 |]
w:1.~Fran-quea-daa por-taa nÃ³s es-tÃ¡ Da pe-re-nal mo-ra-da, E Cris-to nos con-ce-de-rÃ¡ A tri-un-fal en-tra-da.     Oh, quan-toa-mor Je-sus sen-tiu!    Pois e-lea por-ta jÃ¡ mea-briu    A mim,_ a mim;_    A por-ta jÃ¡ mea-briu.
w:2.~Se que-res, pe-ca-dor, en-trar, A por-taes-tÃ¡ a-ber-ta! A-li no cÃ©u te-rÃ¡s lu-gar Que Cris-toa ti o-fer-ta.
w:3.~Oh, vin-de, pe-ca-do-res, jÃ¡, Sim, vin-de sem de-mo-ra! O tem-po prÃ³-prio pas-sa-rÃ¡, Oh, vin-deen-trar a-go-ra!
W:
W:
W:1. Franqueada a porta a nÃ³s estÃ¡
W:Da perenal morada,
W:E Cristo nos concederÃ¡
W:A triunfal entrada.
W:
W:(Estribilho)
W:Oh, quanto amor Jesus sentiu!
W:Pois ele a porta jÃ¡ me abriu
W:A mim, a mim;
W:A porta jÃ¡ me abriu.
W:
W:
W:
W:2. Se queres, pecador, entrar,
W:A porta estÃ¡ aberta!
W:Ali no cÃ©u terÃ¡s lugar
W:Que Cristo a ti oferta.
W:
W:3. Oh, vinde, pecadores, jÃ¡,
W:Sim, vinde sem demora!
W:O tempo prÃ³prio passarÃ¡,
W:Oh, vinde entrar agora!
W:
W:

